; generated by PrusaSlicer 2.5.2+win64 on 2023-05-22 at 22:27:33 UTC

; 

; external perimeters extrusion width = 0.45mm
; perimeters extrusion width = 0.45mm
; infill extrusion width = 0.45mm
; solid infill extrusion width = 0.45mm
; top infill extrusion width = 0.40mm
; first layer extrusion width = 0.42mm

; external perimeters extrusion width = 0.45mm
; perimeters extrusion width = 0.45mm
; infill extrusion width = 0.45mm
; solid infill extrusion width = 0.45mm
; top infill extrusion width = 0.40mm
; first layer extrusion width = 0.42mm

; external perimeters extrusion width = 0.45mm
; perimeters extrusion width = 0.45mm
; infill extrusion width = 0.45mm
; solid infill extrusion width = 0.45mm
; top infill extrusion width = 0.40mm
; first layer extrusion width = 0.42mm

; external perimeters extrusion width = 0.45mm
; perimeters extrusion width = 0.45mm
; infill extrusion width = 0.45mm
; solid infill extrusion width = 0.45mm
; top infill extrusion width = 0.40mm
; first layer extrusion width = 0.42mm

M73 P0 R124
M73 Q0 S125
M201 X1000 Y1000 Z200 E5000 ; sets maximum accelerations, mm/sec^2
M203 X200 Y200 Z12 E120 ; sets maximum feedrates, mm / sec
M204 P1250 R1250 T1250 ; sets acceleration (P, T) and retract acceleration (R), mm/sec^2
M205 X8.00 Y8.00 Z0.40 E4.50 ; sets the jerk limits, mm/sec
M205 S0 T0 ; sets the minimum extruding and travel feed rate, mm/sec
M107
;TYPE:Custom
M862.3 P "MK3" ; printer model check
M862.1 P0.4 ; nozzle diameter check
M115 U3.10.1 ; tell printer latest fw version
G90 ; use absolute coordinates
M83 ; extruder relative mode
M104 S215 ; set extruder temp
M140 S60 ; set bed temp
M190 S60 ; wait for bed temp
M109 S215 ; wait for extruder temp
G28 W ; home all without mesh bed level
G80 ; mesh bed leveling
G1 Z0.2 F720
G1 Y-3 F1000 ; go outside print area
G92 E0
G1 X60 E9 F1000 ; intro line
G1 X100 E12.5 F1000 ; intro line
G92 E0
M221 S95

; Don't change E values below. Excessive value can damage the printer.
M907 E430 ; set extruder motor current
G21 ; set units to millimeters
G90 ; use absolute coordinates
M83 ; use relative distances for extrusion
M900 K0.05 ; Filament gcode LA 1.5
M900 K30 ; Filament gcode LA 1.0
M107
;LAYER_CHANGE
;Z:0.2
;HEIGHT:0.2
;BEFORE_LAYER_CHANGE
G92 E0.0
;0.2


G1 E-.8 F2100
G1 Z.4 F720
;AFTER_LAYER_CHANGE
;0.2
G1 X80.14 Y83.146 F10800
G1 Z.2 F720
G1 E.8 F2100
M204 S800
;TYPE:Skirt/Brim
;WIDTH:0.42
G1 F1200
G1 X108.938 Y55.388 E1.25409
G1 X110.588 Y54.723 E.05577
G1 X139.412 Y54.723 E.90379
G1 X141.088 Y55.414 E.05684
G1 X175.82 Y89.957 E1.53589
G1 X176.516 Y91.638 E.05704
G1 X176.516 Y120.463 E.90379
G1 X175.82 Y122.144 E.05704
G1 X141.159 Y156.729 E1.53524
G1 X139.48 Y157.423 E.05696
G1 X110.655 Y157.423 E.90379
G1 X108.974 Y156.727 E.05704
G1 X73.835 Y121.513 E1.55979
G1 X73.141 Y119.834 E.05697
G1 X73.141 Y91.009 E.90379
G1 X73.837 Y89.329 E.05704
G1 X76.824 Y86.341 E.13247
G1 X80.096 Y83.187 E.14249
M204 S1000
;WIPE_START
G1 F8640
G1 X82.466 Y80.903 E-.76
;WIPE_END
G1 E-.04 F2100
G1 Z.6 F720
G1 X80.108 Y88.344 F10800
G1 Z.2 F720
G1 E.8 F2100
M204 S800
G1 F1200
G1 X95.809 Y88.31 E.49232
G1 X95.851 Y84.378 E.12327
G1 X96.417 Y82.724 E.05482
G1 X96.843 Y82.123 E.02311
G1 X97.37 Y81.554 E.02431
G1 X98.59 Y80.742 E.04593
G1 X99.719 Y80.379 E.0372
G1 X100.271 Y80.346 E.01734
G1 X100.399 Y80.01 E.01125
G1 X101.069 Y79.026 E.03733
G1 X101.997 Y78.201 E.03894
G1 X103.136 Y77.634 E.03989
G1 X104.38 Y77.387 E.03976
G1 X107.886 Y77.387 E.10995
G1 X107.892 Y61.738 E.49066
G1 X108.201 Y60.47 E.04091
G1 X108.659 Y59.55 E.03224
G1 X109.596 Y58.519 E.04366
G1 X110.281 Y58.011 E.02674
G1 X112.253 Y57.386 E.06488
G1 X137.69 Y57.39 E.79753
G1 X138.71 Y57.584 E.03256
G1 X139.688 Y58 E.03332
G1 X140.809 Y58.893 E.04494
G1 X141.618 Y60.048 E.04422
G1 X142.067 Y61.447 E.04607
G1 X142.112 Y77.387 E.49978
G1 X145.65 Y77.387 E.11095
G1 X147.086 Y77.717 E.0462
G1 X148.15 Y78.304 E.03811
G1 X149.039 Y79.153 E.03854
G1 X149.654 Y80.116 E.03582
G1 X149.961 Y81.027 E.03012
G1 X151.105 Y81.39 E.03764
G1 X152.285 Y82.181 E.04454
G1 X152.814 Y82.751 E.02439
G1 X153.24 Y83.353 E.02311
G1 X153.806 Y85.007 E.05482
G1 X153.847 Y88.937 E.12324
G1 X169.501 Y88.942 E.49082
G1 X170.769 Y89.252 E.04091
G1 X171.689 Y89.71 E.03224
G1 X172.72 Y90.646 E.04366
G1 X173.228 Y91.331 E.02674
G1 X173.853 Y93.304 E.06486
G1 X173.853 Y118.65 E.79472
G1 X173.742 Y119.463 E.02573
G1 X173.209 Y120.784 E.04467
G1 X172.292 Y121.91 E.04553
G1 X171.115 Y122.706 E.04456
M73 Q0 S124
G1 X169.721 Y123.128 E.04564
G1 X153.847 Y123.163 E.49772
G1 X153.806 Y127.094 E.12327
G1 X153.24 Y128.749 E.05482
G1 X152.814 Y129.35 E.02311
G1 X152.285 Y129.92 E.02437
G1 X151.122 Y130.703 E.04399
G1 X150.039 Y131.06 E.03575
G1 X149.699 Y132.076 E.03359
G1 X149.106 Y132.995 E.03429
G1 X148.276 Y133.799 E.03622
G1 X147.241 Y134.394 E.03742
G1 X145.729 Y134.759 E.04878
G1 X142.181 Y134.759 E.11124
G1 X142.176 Y150.408 E.49066
G1 X141.867 Y151.676 E.04091
G1 X141.408 Y152.596 E.03224
G1 X140.472 Y153.626 E.04366
G1 X139.787 Y154.135 E.02674
G1 X137.815 Y154.759 E.06486
G1 X112.469 Y154.759 E.79472
G1 X111.655 Y154.649 E.02573
G1 X110.334 Y154.116 E.04467
G1 X109.208 Y153.198 E.04553
G1 X108.412 Y152.021 E.04456
G1 X107.99 Y150.628 E.04564
G1 X107.955 Y134.754 E.49772
G1 X104.024 Y134.712 E.12327
G1 X102.37 Y134.147 E.05482
G1 X101.769 Y133.72 E.02311
G1 X101.2 Y133.193 E.02431
G1 X100.389 Y131.975 E.0459
G1 X100.025 Y130.848 E.03712
G1 X99.999 Y130.53 E.00999
G1 X98.651 Y130.127 E.04413
G1 X97.675 Y129.547 E.03562
G1 X96.869 Y128.755 E.0354
G1 X96.271 Y127.821 E.03478
G1 X95.804 Y126.147 E.05451
G1 X95.804 Y122.536 E.11323
G1 X80.155 Y122.53 E.49066
G1 X78.888 Y122.221 E.04091
G1 X77.967 Y121.763 E.03224
G1 X76.937 Y120.826 E.04366
G1 X76.429 Y120.141 E.02674
G1 X75.804 Y118.169 E.06486
G1 X75.804 Y92.823 E.79472
G1 X75.915 Y92.009 E.02573
G1 X76.448 Y90.688 E.04467
G1 X77.365 Y89.562 E.04553
G1 X78.542 Y88.766 E.04456
G1 X79.935 Y88.344 E.04564
G1 X80.048 Y88.344 E.00352
M204 S1000
G1 X80.048 Y88.713 F10800
M204 S800
G1 F1200
G1 X96.184 Y88.686 E.50592
G1 X96.218 Y84.47 E.13221
G1 X96.741 Y82.919 E.05132
G1 X97.128 Y82.37 E.02107
G1 X97.632 Y81.827 E.02322
G1 X98.73 Y81.093 E.04141
G1 X99.81 Y80.746 E.03554
G1 X100.545 Y80.713 E.02308
G1 X100.726 Y80.199 E.01708
G1 X101.338 Y79.292 E.0343
G1 X102.229 Y78.5 E.03737
G1 X103.28 Y77.984 E.03672
M73 P0 R123
G1 X104.398 Y77.764 E.03574
G1 X108.264 Y77.764 E.1212
G1 X108.264 Y61.805 E.50037
G1 X108.562 Y60.581 E.03951
G1 X108.984 Y59.743 E.0294
G1 X109.861 Y58.788 E.04065
G1 X110.479 Y58.334 E.02407
G1 X112.282 Y57.764 E.0593
G1 X137.671 Y57.767 E.79605
G1 X138.617 Y57.95 E.03022
G1 X139.515 Y58.336 E.03062
G1 X140.551 Y59.169 E.04169
G1 X141.292 Y60.238 E.04079
G1 X141.698 Y61.532 E.04253
G1 X141.735 Y77.764 E.50893
G1 X145.629 Y77.764 E.12209
G1 X146.927 Y78.06 E.04175
G1 X147.946 Y78.622 E.03648
G1 X148.761 Y79.408 E.03549
G1 X149.322 Y80.297 E.03297
G1 X149.663 Y81.33 E.0341
G1 X150.92 Y81.719 E.04124
G1 X152.024 Y82.454 E.04158
G1 X152.528 Y82.998 E.02328
G1 X152.916 Y83.547 E.02107
G1 X153.439 Y85.098 E.05132
G1 X153.473 Y89.314 E.13219
G1 X169.434 Y89.314 E.50045
G1 X170.658 Y89.613 E.03951
G1 X171.496 Y90.035 E.0294
G1 X172.451 Y90.911 E.04065
G1 X172.906 Y91.529 E.02407
G1 X173.476 Y93.332 E.05929
G1 X173.476 Y118.637 E.7934
G1 X173.372 Y119.388 E.02376
G1 X172.871 Y120.615 E.04156
G1 X172.019 Y121.648 E.042
G1 X170.93 Y122.377 E.04109
G1 X169.641 Y122.759 E.04215
G1 X153.473 Y122.786 E.50693
G1 X153.439 Y127.003 E.13221
G1 X152.916 Y128.554 E.05132
G1 X152.528 Y129.103 E.02107
G1 X152.024 Y129.647 E.02326
G1 X150.935 Y130.375 E.04107
G1 X149.74 Y130.76 E.03937
G1 X149.368 Y131.894 E.03742
G1 X148.827 Y132.74 E.03148
G1 X148.031 Y133.511 E.03476
G1 X147.079 Y134.053 E.03435
G1 X145.707 Y134.382 E.04423
G1 X141.804 Y134.382 E.12237
G1 X141.804 Y150.341 E.50037
G1 X141.506 Y151.565 E.03951
G1 X141.084 Y152.402 E.0294
G1 X140.207 Y153.357 E.04065
G1 X139.589 Y153.812 E.02407
G1 X137.786 Y154.382 E.05929
G1 X112.482 Y154.382 E.7934
G1 X111.731 Y154.279 E.02376
G1 X110.504 Y153.778 E.04156
G1 X109.47 Y152.926 E.042
G1 X108.742 Y151.836 E.04109
G1 X108.359 Y150.547 E.04215
G1 X108.332 Y134.38 E.50693
G1 X104.116 Y134.346 E.13221
G1 X102.565 Y133.823 E.05132
G1 X102.016 Y133.435 E.02107
G1 X101.472 Y132.932 E.02322
G1 X100.74 Y131.834 E.04138
G1 X100.393 Y130.758 E.03543
G1 X100.361 Y130.137 E.01951
G1 X99.914 Y130.115 E.01404
G1 X98.783 Y129.773 E.03703
G1 X97.889 Y129.236 E.03271
G1 X97.151 Y128.503 E.03262
G1 X96.604 Y127.643 E.03194
G1 X96.181 Y126.121 E.04952
G1 X96.181 Y122.158 E.12426
G1 X80.223 Y122.158 E.50037
G1 X78.998 Y121.86 E.03951
G1 X78.161 Y121.438 E.0294
G1 X77.206 Y120.561 E.04065
G1 X76.751 Y119.943 E.02407
G1 X76.181 Y118.14 E.05929
G1 X76.181 Y92.836 E.7934
G1 X76.285 Y92.085 E.02376
G1 X76.786 Y90.858 E.04156
G1 X77.638 Y89.824 E.042
G1 X78.727 Y89.096 E.04109
G1 X79.989 Y88.721 E.04128
M204 S1000
G1 X80.094 Y89.083 F10800
M204 S800
G1 F1200
G1 X96.559 Y89.063 E.51624
G1 X96.585 Y84.56 E.1412
G1 X97.066 Y83.112 E.04781
G1 X97.414 Y82.617 E.01899
G1 X97.894 Y82.099 E.02213
G1 X98.871 Y81.444 E.03689
G1 X99.899 Y81.113 E.03386
G1 X100.821 Y81.082 E.02892
G1 X101.055 Y80.386 E.02302
G1 X101.608 Y79.556 E.03128
G1 X102.419 Y78.827 E.03418
G1 X103.423 Y78.334 E.03509
G1 X104.416 Y78.141 E.03171
G1 X108.641 Y78.141 E.13246
G1 X108.641 Y61.829 E.51146
G1 X108.923 Y60.694 E.03667
G1 X109.307 Y59.939 E.02656
G1 X110.124 Y59.059 E.03764
G1 X110.676 Y58.656 E.02142
G1 X112.311 Y58.141 E.05376
G1 X137.652 Y58.144 E.79456
G1 X138.524 Y58.316 E.02785
G1 X139.34 Y58.671 E.0279
G1 X140.291 Y59.444 E.03843
G1 X140.964 Y60.427 E.03735
G1 X141.33 Y61.615 E.039
G1 X141.359 Y78.141 E.51814
G1 X145.608 Y78.141 E.13324
G1 X146.769 Y78.403 E.0373
G1 X147.741 Y78.94 E.03483
G1 X148.481 Y79.661 E.0324
G1 X148.99 Y80.477 E.03013
G1 X149.299 Y81.431 E.03147
G1 X149.326 Y81.715 E.00895
G1 X149.759 Y81.742 E.0136
G1 X150.734 Y82.049 E.03205
G1 X151.763 Y82.727 E.03864
G1 X152.243 Y83.245 E.02215
G1 X152.591 Y83.741 E.01899
G1 X153.071 Y85.188 E.04781
G1 X153.098 Y89.691 E.14119
G1 X169.411 Y89.691 E.51149
G1 X170.546 Y89.973 E.03667
G1 X171.3 Y90.358 E.02656
G1 X172.18 Y91.175 E.03764
G1 X172.583 Y91.726 E.02142
G1 X173.099 Y93.361 E.05375
G1 X173.099 Y118.623 E.79208
G1 X173.002 Y119.311 E.02177
G1 X172.534 Y120.443 E.03841
G1 X171.748 Y121.385 E.03846
G1 X170.747 Y122.046 E.03762
G1 X169.562 Y122.39 E.03868
G1 X153.098 Y122.41 E.51622
G1 X153.071 Y126.913 E.1412
G1 X152.591 Y128.36 E.04781
G1 X152.243 Y128.856 E.019
G1 X151.763 Y129.374 E.02214
G1 X150.748 Y130.047 E.03819
G1 X149.831 Y130.347 E.03024
G1 X149.402 Y130.375 E.01347
G1 X149.377 Y130.653 E.00875
G1 X149.036 Y131.713 E.03492
G1 X148.547 Y132.486 E.02868
G1 X147.823 Y133.196 E.03178
G1 X146.916 Y133.712 E.03273
G1 X145.685 Y134.005 E.03966
G1 X141.427 Y134.005 E.1335
G1 X141.427 Y150.317 E.51146
G1 X141.145 Y151.452 E.03667
G1 X140.76 Y152.207 E.02656
G1 X139.944 Y153.087 E.03764
G1 X139.392 Y153.489 E.02142
G1 X137.757 Y154.005 E.05375
G1 X112.495 Y154.005 E.79208
G1 X111.808 Y153.909 E.02177
G1 X110.675 Y153.441 E.03841
G1 X109.734 Y152.655 E.03846
G1 X109.073 Y151.653 E.03762
G1 X108.729 Y150.468 E.03868
G1 X108.709 Y134.004 E.51622
G1 X104.205 Y133.978 E.1412
G1 X102.758 Y133.498 E.04781
G1 X102.262 Y133.15 E.01899
G1 X101.745 Y132.67 E.02213
G1 X101.09 Y131.693 E.03686
G1 X100.76 Y130.669 E.03374
G1 X100.727 Y129.766 E.02832
G1 X99.997 Y129.746 E.02292
G1 X98.915 Y129.419 E.03541
G1 X98.105 Y128.926 E.02974
M73 P1 R123
G1 X97.433 Y128.252 E.02985
G1 X96.938 Y127.466 E.02913
G1 X96.558 Y126.096 E.04458
G1 X96.558 Y121.781 E.13528
M73 Q1 S124
G1 X80.246 Y121.781 E.51146
G1 X79.111 Y121.499 E.03667
G1 X78.356 Y121.114 E.02656
G1 X77.477 Y120.298 E.03764
G1 X77.074 Y119.746 E.02142
G1 X76.558 Y118.111 E.05375
G1 X76.558 Y92.849 E.79208
G1 X76.655 Y92.162 E.02177
G1 X77.123 Y91.029 E.03841
G1 X77.909 Y90.088 E.03846
G1 X78.91 Y89.427 E.03762
G1 X80.037 Y89.1 E.03678
M204 S1000
G1 X80.139 Y89.462 F10800
M204 S800
G1 F1200
G1 X96.935 Y89.44 E.52663
G1 X96.953 Y84.648 E.15025
G1 X97.391 Y83.305 E.0443
G1 X97.699 Y82.863 E.01689
G1 X98.155 Y82.371 E.02103
G1 X99.012 Y81.795 E.03237
G1 X99.988 Y81.481 E.03214
G1 X101.098 Y81.453 E.03483
G1 X101.384 Y80.571 E.0291
G1 X101.879 Y79.82 E.02819
G1 X102.651 Y79.125 E.03255
G1 X103.564 Y78.684 E.03181
G1 X104.433 Y78.518 E.02775
G1 X109.018 Y78.518 E.14374
G1 X109.018 Y61.852 E.52253
G1 X109.283 Y60.808 E.03378
G1 X109.63 Y60.136 E.02372
G1 X110.386 Y59.331 E.03463
G1 X110.872 Y58.98 E.01879
G1 X112.34 Y58.518 E.04826
G1 X137.633 Y58.521 E.79306
G1 X138.429 Y58.681 E.02544
G1 X139.164 Y59.005 E.02518
G1 X140.03 Y59.717 E.03515
G1 X140.635 Y60.613 E.0339
G1 X140.961 Y61.697 E.0355
G1 X140.982 Y78.518 E.5274
G1 X145.588 Y78.518 E.14441
G1 X146.612 Y78.747 E.03291
G1 X147.498 Y79.229 E.03163
G1 X148.175 Y79.883 E.02949
G1 X148.638 Y80.616 E.0272
G1 X148.931 Y81.52 E.02979
G1 X148.958 Y82.082 E.01766
G1 X149.672 Y82.11 E.02239
G1 X150.596 Y82.4 E.03036
G1 X151.501 Y83 E.03406
G1 X151.957 Y83.492 E.02103
G1 X152.266 Y83.933 E.01689
G1 X152.704 Y85.276 E.0443
G1 X152.721 Y90.068 E.15025
G1 X169.387 Y90.068 E.52253
G1 X170.431 Y90.333 E.03378
G1 X171.103 Y90.68 E.02372
G1 X171.908 Y91.436 E.03463
G1 X172.259 Y91.922 E.01879
G1 X172.721 Y93.39 E.04825
G1 X172.721 Y118.61 E.79075
G1 X172.632 Y119.233 E.01974
G1 X172.198 Y120.27 E.03525
G1 X171.479 Y121.119 E.03489
G1 X170.566 Y121.714 E.03416
G1 X169.485 Y122.02 E.03523
G1 X152.721 Y122.033 E.5256
G1 X152.704 Y126.825 E.15025
G1 X152.266 Y128.168 E.0443
G1 X151.957 Y128.609 E.01689
G1 X151.501 Y129.101 E.02103
G1 X150.606 Y129.696 E.03371
G1 X149.741 Y129.98 E.02855
G1 X149.032 Y130.01 E.02225
G1 X149.009 Y130.567 E.01748
G1 X148.685 Y131.574 E.03318
G1 X148.242 Y132.264 E.02573
G1 X147.615 Y132.88 E.02753
G1 X146.753 Y133.37 E.03111
G1 X145.663 Y133.628 E.0351
G1 X141.05 Y133.628 E.14465
G1 X141.05 Y150.293 E.52253
G1 X140.785 Y151.338 E.03378
G1 X140.438 Y152.01 E.02372
G1 X139.682 Y152.815 E.03463
G1 X139.196 Y153.166 E.01879
G1 X137.728 Y153.628 E.04825
G1 X112.509 Y153.628 E.79075
G1 X111.885 Y153.539 E.01974
G1 X110.849 Y153.105 E.03525
G1 X109.999 Y152.386 E.03489
G1 X109.405 Y151.473 E.03416
G1 X109.099 Y150.391 E.03523
G1 X109.086 Y133.628 E.5256
G1 X104.294 Y133.611 E.15025
G1 X102.951 Y133.172 E.0443
G1 X102.509 Y132.864 E.01689
G1 X102.017 Y132.408 E.02103
G1 X101.441 Y131.552 E.03235
G1 X101.128 Y130.58 E.03203
G1 X101.096 Y129.393 E.03723
M73 Q1 S123
G1 X100.079 Y129.377 E.03189
G1 X99.048 Y129.066 E.03376
G1 X98.323 Y128.618 E.02672
G1 X97.716 Y128.003 E.02709
G1 X97.273 Y127.29 E.02633
G1 X96.935 Y126.07 E.03968
G1 X96.935 Y121.404 E.14631
G1 X80.27 Y121.404 E.52253
G1 X79.226 Y121.139 E.03378
G1 X78.554 Y120.792 E.02372
G1 X77.748 Y120.036 E.03463
G1 X77.398 Y119.55 E.01879
G1 X76.935 Y118.083 E.04825
G1 X76.935 Y92.863 E.79075
G1 X77.025 Y92.24 E.01974
G1 X77.459 Y91.203 E.03525
G1 X78.178 Y90.353 E.03489
G1 X79.091 Y89.759 E.03416
G1 X80.082 Y89.478 E.03228
M204 S1000
G1 X80.181 Y89.841 F10800
M204 S800
G1 F1200
G1 X80.247 Y89.823 E.00213
G1 X97.312 Y89.817 E.53506
G1 X97.321 Y84.734 E.15936
G1 X97.717 Y83.496 E.04077
G1 X97.985 Y83.109 E.01475
G1 X98.417 Y82.643 E.01994
G1 X99.153 Y82.146 E.02784
G1 X100.076 Y81.849 E.0304
G1 X101.377 Y81.827 E.0408
G1 X101.715 Y80.753 E.03529
G1 X102.152 Y80.081 E.02513
G1 X102.84 Y79.453 E.02922
G1 X103.705 Y79.035 E.03014
G1 X104.451 Y78.895 E.02377
G1 X109.395 Y78.895 E.15502
G1 X109.395 Y61.877 E.53358
G1 X109.642 Y60.925 E.03084
G1 X109.951 Y60.335 E.02087
G1 X110.646 Y59.604 E.03162
G1 X111.066 Y59.304 E.01619
G1 X112.368 Y58.895 E.04281
G1 X137.615 Y58.898 E.79158
G1 X138.296 Y59.035 E.02178
G1 X138.987 Y59.339 E.02369
G1 X139.767 Y59.988 E.03181
G1 X140.305 Y60.797 E.03044
G1 X140.591 Y61.776 E.03201
G1 X140.605 Y78.895 E.53674
G1 X145.567 Y78.895 E.15559
G1 X146.455 Y79.091 E.02851
G1 X147.295 Y79.548 E.02998
G1 X147.869 Y80.105 E.02508
G1 X148.287 Y80.756 E.02426
