; generated by PrusaSlicer 2.5.2+win64 on 2023-09-04 at 21:46:44 UTC


;
;
; 

; external perimeters extrusion width = 0.60mm
; perimeters extrusion width = 0.50mm
; infill extrusion width = 0.50mm
; solid infill extrusion width = 0.50mm
; top infill extrusion width = 0.45mm
; first layer extrusion width = 0.42mm

M73 P0 R6
M73 Q0 S6
M201 X1000 Y1000 Z200 E5000 ; sets maximum accelerations, mm/sec^2
M203 X200 Y200 Z12 E120 ; sets maximum feedrates, mm / sec
M204 P1250 R1250 T1250 ; sets acceleration (P, T) and retract acceleration (R), mm/sec^2
M205 X8.00 Y8.00 Z0.40 E4.50 ; sets the jerk limits, mm/sec
M205 S0 T0 ; sets the minimum extruding and travel feed rate, mm/sec
M107
;TYPE:Custom
M862.3 P "MK3" ; printer model check
M862.1 P0.4 ; nozzle diameter check
M115 U3.12.2 ; tell printer latest fw version
G90 ; use absolute coordinates
M83 ; extruder relative mode
M104 S215 ; set extruder temp
M140 S60 ; set bed temp
M190 S60 ; wait for bed temp
M109 S215 ; wait for extruder temp
G28 W ; home all without mesh bed level
G80 ; mesh bed leveling

G1 Z0.2 F720
G1 Y-3 F1000 ; go outside print area
G92 E0
G1 X60 E9 F1000 ; intro line
G1 X100 E12.5 F1000 ; intro line

G92 E0
M221 S95

; Don't change E values below. Excessive value can damage the printer.

M907 E538 ; set extruder motor current
G21 ; set units to millimeters
G90 ; use absolute coordinates
M83 ; use relative distances for extrusion
M900 K0.05 ; Filament gcode LA 1.5
M900 K30 ; Filament gcode LA 1.0
M107
;LAYER_CHANGE
;Z:0.4
;HEIGHT:0.4
;BEFORE_LAYER_CHANGE
G92 E0.0
;0.4


G1 E-.8 F2100
M73 P1 R6
M73 Q1 S6
G1 Z.4 F720
;AFTER_LAYER_CHANGE
;0.4
G1 Z.8
G1 X112.077 Y98.609 F10800
G1 Z.4 F720
G1 E.8 F2100
M204 S800
;TYPE:Skirt/Brim
;WIDTH:0.42
G1 F1200
G1 X113.107 Y97.537 E.08264
G1 X114.418 Y96.406 E.0962
G1 X115.63 Y95.544 E.08264
G1 X117.096 Y94.693 E.09421
G1 X118.552 Y94.026 E.089
G1 X120.153 Y93.469 E.09421
G1 X122.073 Y93.024 E.10952
G1 X123.584 Y92.831 E.08464
G1 X125.278 Y92.775 E.09421
G1 X126.841 Y92.872 E.08701
M73 Q2 S6
G1 X128.551 Y93.143 E.0962
G1 X130.453 Y93.659 E.10952
G1 X131.875 Y94.204 E.08464
G1 X133.394 Y94.956 E.0942
M73 P2 R6
G1 X134.755 Y95.801 E.089
G1 X136.103 Y96.828 E.0942
G1 X137.535 Y98.183 E.10952
G1 X138.578 Y99.398 E.089
G1 X139.555 Y100.784 E.09421
G1 X140.295 Y102.073 E.08264
G1 X141.013 Y103.648 E.0962
G1 X141.501 Y105.053 E.08264
G1 X141.959 Y106.97 E.10952
G1 X142.177 Y108.688 E.0962
G1 X142.225 Y110.252 E.087
G1 X142.117 Y111.944 E.0942
G1 X141.878 Y113.448 E.08464
G1 X141.374 Y115.354 E.10952
G1 X140.754 Y116.97 E.0962
G1 X140.056 Y118.372 E.087
G1 X139.14 Y119.84 E.0962
G1 X137.923 Y121.391 E.10952
G1 X136.893 Y122.463 E.08264
G1 X135.582 Y123.594 E.0962
G1 X134.37 Y124.456 E.08264
G1 X132.904 Y125.307 E.09421
G1 X131.448 Y125.974 E.089
G1 X129.847 Y126.531 E.09421
G1 X127.927 Y126.976 E.10952
G1 X126.338 Y127.175 E.089
G1 X124.643 Y127.223 E.0942
G1 X123.124 Y127.124 E.08464
G1 X121.18 Y126.798 E.10953
G1 X119.513 Y126.33 E.0962
G1 X118.053 Y125.764 E.08701
G1 X116.537 Y125.005 E.09421
G1 X115.245 Y124.199 E.08464
G1 X113.687 Y122.992 E.10952
G1 X112.465 Y121.817 E.0942
G1 X111.422 Y120.602 E.089
G1 X110.445 Y119.216 E.09421
G1 X109.705 Y117.927 E.08264
G1 X108.987 Y116.352 E.0962
G1 X108.499 Y114.947 E.08264
G1 X108.041 Y113.03 E.10952
G1 X107.823 Y111.312 E.0962
G1 X107.775 Y109.748 E.087
G1 X107.883 Y108.056 E.0942
G1 X108.122 Y106.552 E.08464
M73 Q3 S6
G1 X108.626 Y104.646 E.10952
G1 X109.246 Y103.03 E.0962
G1 X109.944 Y101.628 E.087
G1 X110.86 Y100.16 E.0962
M73 P3 R6
G1 X112.04 Y98.656 E.10618
M204 S1000
;WIPE_START
G1 F8640
G1 X113.107 Y97.537 E-.35718
G1 X114.418 Y96.406 E-.39972
G1 X114.429 Y96.398 E-.0031
;WIPE_END
G1 E-.04 F2100
G1 Z.8 F720
G1 X114.204 Y100.464 F10800
G1 Z.4 F720
G1 E.8 F2100
M204 S800
G1 F1200
G1 X115.103 Y99.534 E.07185
G1 X115.584 Y99.1 E.036
G1 X116.154 Y98.632 E.04102
G1 X117.194 Y97.894 E.07087
G1 X117.747 Y97.556 E.036
G1 X118.394 Y97.2 E.04106
G1 X119.577 Y96.655 E.07238
G1 X120.288 Y96.389 E.04218
G1 X121.004 Y96.162 E.04176
G1 X121.788 Y95.959 E.04497
G1 X122.582 Y95.8 E.04499
G1 X123.878 Y95.639 E.07259
G1 X124.627 Y95.601 E.04167
G1 X125.376 Y95.601 E.04166
G1 X126.194 Y95.646 E.04547
G1 X126.999 Y95.735 E.04502
G1 X128.257 Y95.969 E.07113
G1 X128.885 Y96.13 E.036
G1 X129.591 Y96.347 E.04106
G1 X130.805 Y96.817 E.07238
G1 X131.473 Y97.133 E.04105
G1 X132.044 Y97.435 E.0359
G1 X133.129 Y98.109 E.07097
G1 X133.744 Y98.554 E.04214
G1 X134.329 Y99.025 E.04175
G1 X134.93 Y99.566 E.04497
G1 X135.501 Y100.14 E.04499
G1 X136.351 Y101.132 E.07259
G1 X136.791 Y101.726 E.04106
G1 X137.151 Y102.265 E.036
G1 X137.788 Y103.37 E.07088
G1 X138.111 Y104.035 E.0411
G1 X138.383 Y104.674 E.03861
G1 X138.79 Y105.837 E.06846
G1 X139.001 Y106.617 E.04491
G1 X139.169 Y107.409 E.04497
G1 X139.285 Y108.151 E.04174
G1 X139.363 Y108.906 E.04217
G1 X139.403 Y110.208 E.07238
G1 X139.373 Y110.946 E.04105
G1 X139.317 Y111.59 E.0359
G1 X139.119 Y112.851 E.07097
G1 X138.949 Y113.59 E.04214
G1 X138.743 Y114.313 E.04174
G1 X138.479 Y115.078 E.04497
G1 X138.173 Y115.827 E.04499
G1 X137.591 Y116.997 E.07261
G1 X137.204 Y117.65 E.04217
G1 X136.789 Y118.276 E.04175
G1 X136.306 Y118.925 E.04497
G1 X135.787 Y119.546 E.04493
G1 X134.923 Y120.441 E.06912
G1 X134.417 Y120.899 E.03796
G1 X133.846 Y121.368 E.04107
G1 X132.806 Y122.106 E.07087
G1 X132.253 Y122.444 E.036
G1 X131.606 Y122.8 E.04106
G1 X130.423 Y123.345 E.07238
G1 X129.712 Y123.611 E.04218
G1 X128.996 Y123.838 E.04176
G1 X128.212 Y124.041 E.04497
G1 X127.418 Y124.2 E.04499
G1 X126.122 Y124.361 E.07259
G1 X125.384 Y124.399 E.04106
G1 X124.741 Y124.402 E.03574
G1 X123.876 Y124.36 E.04815
G1 X123.006 Y124.266 E.04862
G1 X121.778 Y124.039 E.06938
G1 X121.116 Y123.87 E.03796
G1 X120.409 Y123.653 E.04111
G1 X119.195 Y123.183 E.07238
G1 X118.527 Y122.867 E.04105
M73 Q4 S6
G1 X117.956 Y122.565 E.03591
G1 X116.867 Y121.889 E.0712
G1 X116.213 Y121.413 E.04496
G1 X115.586 Y120.902 E.04497
G1 X115.03 Y120.396 E.04175
G1 X114.496 Y119.857 E.04217
G1 X113.649 Y118.868 E.07238
M73 P4 R6
G1 X113.209 Y118.274 E.04106
G1 X112.849 Y117.735 E.036
G1 X112.212 Y116.63 E.07087
G1 X111.889 Y115.965 E.0411
G1 X111.617 Y115.326 E.03861
G1 X111.21 Y114.163 E.06846
G1 X110.999 Y113.383 E.04491
G1 X110.831 Y112.591 E.04497
G1 X110.715 Y111.849 E.04175
G1 X110.637 Y111.094 E.04217
G1 X110.597 Y109.792 E.07238
G1 X110.627 Y109.054 E.04105
G1 X110.683 Y108.41 E.0359
G1 X110.881 Y107.149 E.07097
G1 X111.051 Y106.41 E.04214
G1 X111.257 Y105.687 E.04174
G1 X111.521 Y104.922 E.04497
G1 X111.827 Y104.173 E.04499
G1 X112.409 Y103.003 E.07261
G1 X112.796 Y102.35 E.04217
G1 X113.211 Y101.724 E.04174
G1 X113.694 Y101.075 E.04496
G1 X114.166 Y100.51 E.04088
M204 S1000
G1 X114.422 Y100.725 F10800
M204 S800
G1 F1200
G1 X115.331 Y99.779 E.07288
G1 X115.799 Y99.356 E.03504
G1 X116.362 Y98.894 E.04047
G1 X117.373 Y98.176 E.06895
G1 X117.911 Y97.847 E.03504
G1 X118.55 Y97.495 E.04051
G1 X119.7 Y96.966 E.07038
G1 X120.393 Y96.706 E.04112
G1 X121.092 Y96.484 E.04077
G1 X121.858 Y96.286 E.04394
G1 X122.641 Y96.129 E.04438
G1 X123.901 Y95.973 E.07056
G1 X124.631 Y95.935 E.04062
G1 X125.363 Y95.935 E.04067
G1 X126.161 Y95.978 E.04443
G1 X126.956 Y96.066 E.04441
G1 X128.18 Y96.294 E.06917
G1 X128.79 Y96.451 E.03504
G1 X129.487 Y96.664 E.04051
G1 X130.668 Y97.122 E.07038
G1 X131.327 Y97.433 E.0405
G1 X131.883 Y97.728 E.03494
G1 X132.938 Y98.383 E.06905
G1 X133.537 Y98.817 E.04109
G1 X134.109 Y99.277 E.04076
G1 X134.697 Y99.805 E.04394
G1 X135.26 Y100.372 E.04438
G1 X136.086 Y101.336 E.07057
G1 X136.52 Y101.922 E.04051
G1 X136.87 Y102.446 E.03504
G1 X137.49 Y103.521 E.06895
G1 X137.808 Y104.177 E.04054
G1 X138.074 Y104.8 E.03762
G1 X138.469 Y105.93 E.06654
G1 X138.677 Y106.7 E.04431
G1 X138.841 Y107.474 E.04394
G1 X138.954 Y108.198 E.04075
G1 X139.03 Y108.934 E.04112
G1 X139.069 Y110.2 E.07038
G1 X139.039 Y110.928 E.0405
G1 X138.984 Y111.555 E.03494
G1 X138.792 Y112.782 E.06904
G1 X138.627 Y113.503 E.04109
G1 X138.426 Y114.208 E.04075
G1 X138.165 Y114.964 E.04445
G1 X137.866 Y115.695 E.04387
G1 X137.3 Y116.832 E.07058
G1 X136.924 Y117.469 E.04112
G1 X136.518 Y118.08 E.04075
G1 X136.04 Y118.722 E.04445
G1 X135.535 Y119.327 E.04381
G1 X134.695 Y120.197 E.0672
G1 X134.202 Y120.643 E.03697
G1 X133.638 Y121.106 E.04052
G1 X132.627 Y121.824 E.06895
G1 X132.089 Y122.153 E.03504
G1 X131.45 Y122.505 E.04051
G1 X130.3 Y123.034 E.07038
G1 X129.607 Y123.294 E.04112
G1 X128.908 Y123.516 E.04077
G1 X128.142 Y123.714 E.04394
G1 X127.359 Y123.871 E.04438
G1 X126.099 Y124.027 E.07056
G1 X125.371 Y124.065 E.04051
M73 Q5 S6
G1 X124.753 Y124.068 E.03435
G1 X123.897 Y124.027 E.04762
G1 X123.048 Y123.934 E.04744
G1 X121.855 Y123.714 E.06742
G1 X121.21 Y123.55 E.03697
G1 X120.513 Y123.336 E.04055
G1 X119.332 Y122.878 E.07038
M73 P5 R6
G1 X118.673 Y122.567 E.0405
G1 X118.117 Y122.272 E.03495
G1 X117.059 Y121.615 E.06924
G1 X116.413 Y121.146 E.04436
G1 X115.801 Y120.646 E.04394
G1 X115.258 Y120.152 E.04076
G1 X114.738 Y119.626 E.04112
G1 X113.914 Y118.664 E.07038
G1 X113.48 Y118.078 E.04051
G1 X113.13 Y117.554 E.03504
G1 X112.51 Y116.479 E.06895
G1 X112.192 Y115.823 E.04054
G1 X111.926 Y115.2 E.03762
G1 X111.531 Y114.07 E.06653
G1 X111.323 Y113.3 E.04431
G1 X111.159 Y112.527 E.04394
G1 X111.046 Y111.802 E.04076
G1 X110.97 Y111.066 E.04112
G1 X110.931 Y109.8 E.07038
G1 X110.961 Y109.072 E.0405
G1 X111.016 Y108.445 E.03494
G1 X111.208 Y107.218 E.06904
G1 X111.373 Y106.497 E.04109
G1 X111.574 Y105.792 E.04075
G1 X111.835 Y105.036 E.04445
G1 X112.134 Y104.305 E.04387
G1 X112.7 Y103.168 E.07058
G1 X113.076 Y102.531 E.04112
G1 X113.482 Y101.92 E.04075
G1 X113.954 Y101.286 E.04393
G1 X114.384 Y100.771 E.03729
M204 S1000
G1 X114.64 Y100.985 F10800
M204 S800
G1 F1200
G1 X115.559 Y100.023 E.07392
G1 X116.014 Y99.612 E.03408
G1 X116.569 Y99.156 E.03993
G1 X117.553 Y98.458 E.06703
G1 X118.076 Y98.138 E.03408
G1 X118.706 Y97.791 E.03995
G1 X119.824 Y97.277 E.06838
G1 X120.499 Y97.023 E.04007
G1 X121.181 Y96.806 E.03977
G1 X121.937 Y96.61 E.04342
G1 X122.7 Y96.458 E.04325
G1 X123.924 Y96.306 E.06854
G1 X124.644 Y96.269 E.04005
G1 X125.35 Y96.269 E.03921
G1 X126.129 Y96.311 E.04339
G1 X126.913 Y96.398 E.04381
G1 X128.102 Y96.619 E.06722
G1 X128.696 Y96.771 E.03408
G1 X129.383 Y96.982 E.03995
G1 X130.531 Y97.427 E.06838
G1 X131.181 Y97.734 E.03995
G1 X131.721 Y98.02 E.03398
G1 X132.747 Y98.657 E.06713
G1 X133.331 Y99.08 E.04004
G1 X133.889 Y99.528 E.03977
G1 X134.47 Y100.051 E.04342
G1 X135.018 Y100.603 E.04325
G1 X135.821 Y101.539 E.06854
G1 X136.248 Y102.117 E.03996
G1 X136.59 Y102.627 E.03408
G1 X137.192 Y103.672 E.06703
G1 X137.506 Y104.319 E.03998
G1 X137.764 Y104.926 E.03663
G1 X138.148 Y106.024 E.06462
G1 X138.351 Y106.774 E.04319
G1 X138.513 Y107.538 E.04342
G1 X138.623 Y108.245 E.03976
G1 X138.697 Y108.962 E.04007
G1 X138.735 Y110.192 E.06838
G1 X138.705 Y110.911 E.03995
G1 X138.652 Y111.52 E.03398
G1 X138.465 Y112.713 E.06713
G1 X138.304 Y113.416 E.04005
G1 X138.108 Y114.104 E.03975
G1 X137.854 Y114.842 E.04341
G1 X137.559 Y115.563 E.04326
G1 X137.009 Y116.667 E.06856
G1 X136.643 Y117.288 E.04007
G1 X136.247 Y117.884 E.03976
G1 X135.781 Y118.511 E.04341
G1 X135.282 Y119.108 E.04321
G1 X134.466 Y119.953 E.06528
G1 X133.987 Y120.388 E.03599
G1 X133.431 Y120.844 E.03996
G1 X132.447 Y121.542 E.06703
G1 X131.924 Y121.862 E.03408
G1 X131.294 Y122.209 E.03995
G1 X130.176 Y122.723 E.06838
M73 Q6 S6
G1 X129.501 Y122.977 E.04007
G1 X128.819 Y123.194 E.03977
G1 X128.063 Y123.39 E.04342
G1 X127.3 Y123.542 E.04325
G1 X126.076 Y123.694 E.06854
G1 X125.358 Y123.731 E.03995
G1 X124.756 Y123.734 E.03346
M73 P6 R6
G1 X123.918 Y123.693 E.0466
G1 X123.091 Y123.603 E.04626
G1 X121.932 Y123.389 E.06546
G1 X121.305 Y123.229 E.03599
G1 X120.617 Y123.018 E.03999
G1 X119.469 Y122.573 E.06838
G1 X118.819 Y122.266 E.03995
G1 X118.279 Y121.98 E.03398
G1 X117.25 Y121.341 E.06729
G1 X116.621 Y120.884 E.04323
G1 X116.016 Y120.39 E.04342
G1 X115.487 Y119.908 E.03976
G1 X114.98 Y119.395 E.04007
G1 X114.179 Y118.461 E.06838
G1 X113.752 Y117.883 E.03995
G1 X113.41 Y117.373 E.03408
G1 X112.808 Y116.328 E.06703
G1 X112.494 Y115.681 E.03998
G1 X112.236 Y115.074 E.03662
G1 X111.852 Y113.976 E.06462
G1 X111.649 Y113.226 E.04319
G1 X111.487 Y112.462 E.04342
G1 X111.377 Y111.755 E.03976
G1 X111.303 Y111.038 E.04007
G1 X111.265 Y109.808 E.06838
G1 X111.295 Y109.089 E.03995
G1 X111.348 Y108.48 E.03398
G1 X111.535 Y107.287 E.06713
G1 X111.696 Y106.584 E.04005
G1 X111.892 Y105.896 E.03975
G1 X112.146 Y105.158 E.04341
G1 X112.441 Y104.437 E.04326
G1 X112.991 Y103.333 E.06856
G1 X113.357 Y102.712 E.04007
G1 X113.753 Y102.116 E.03976
G1 X114.219 Y101.489 E.04341
G1 X114.602 Y101.031 E.03317
M204 S1000
G1 X114.858 Y101.245 F10800
M204 S800
G1 F1200
G1 X115.787 Y100.267 E.07496
G1 X116.229 Y99.868 E.03311
G1 X116.777 Y99.418 E.03938
G1 X117.732 Y98.74 E.06511
G1 X118.24 Y98.428 E.03311
G1 X118.862 Y98.087 E.0394
G1 X119.947 Y97.587 E.06638
G1 X120.612 Y97.337 E.0395
G1 X121.269 Y97.129 E.0383
G1 X122.007 Y96.937 E.04238
G1 X122.76 Y96.787 E.04264
G1 X123.947 Y96.64 E.06651
G1 X124.657 Y96.603 E.03948
G1 X125.336 Y96.603 E.03774
G1 X126.106 Y96.644 E.04287
G1 X126.87 Y96.729 E.04267
G1 X128.025 Y96.944 E.06528
G1 X128.602 Y97.092 E.03311
G1 X129.28 Y97.3 E.0394
G1 X130.393 Y97.731 E.06639
G1 X131.034 Y98.034 E.0394
G1 X131.559 Y98.313 E.03302
G1 X132.556 Y98.932 E.06521
G1 X133.132 Y99.348 E.03948
G1 X133.669 Y99.78 E.03829
G1 X134.243 Y100.296 E.04291
G1 X134.777 Y100.834 E.04212
G1 X135.556 Y101.743 E.06652
G1 X135.977 Y102.313 E.0394
G1 X136.309 Y102.808 E.03311
G1 X136.894 Y103.823 E.06511
G1 X137.203 Y104.462 E.03943
G1 X137.451 Y105.042 E.03502
G1 X137.827 Y106.117 E.06332
G1 X138.028 Y106.857 E.04259
G1 X138.185 Y107.603 E.04238
G1 X138.291 Y108.284 E.03829
G1 X138.364 Y108.991 E.0395
G1 X138.401 Y110.185 E.06639
G1 X138.372 Y110.893 E.0394
G1 X138.319 Y111.485 E.03301
G1 X138.138 Y112.644 E.06521
G1 X137.979 Y113.337 E.03948
G1 X137.791 Y113.999 E.03828
G1 X137.543 Y114.72 E.04237
G1 X137.252 Y115.431 E.04266
G1 X136.719 Y116.502 E.06653
G1 X136.357 Y117.114 E.0395
G1 X135.976 Y117.689 E.03829
G1 X135.521 Y118.3 E.04237
G1 X135.03 Y118.889 E.04261
G1 X134.238 Y119.709 E.06336
G1 X133.771 Y120.132 E.035
G1 X133.223 Y120.582 E.03941
M73 Q7 S6
G1 X132.268 Y121.26 E.06511
G1 X131.76 Y121.572 E.03311
G1 X131.138 Y121.913 E.0394
G1 X130.053 Y122.413 E.06638
G1 X129.388 Y122.663 E.0395
G1 X128.731 Y122.871 E.0383
G1 X127.993 Y123.063 E.04238
G1 X127.24 Y123.213 E.04264
M73 P7 R6
G1 X126.053 Y123.36 E.06651
G1 X125.344 Y123.397 E.0394
G1 X124.759 Y123.4 E.03256
G1 X123.949 Y123.36 E.04502
G1 X123.133 Y123.271 E.04564
G1 X122.009 Y123.064 E.06352
G1 X121.399 Y122.908 E.035
G1 X120.72 Y122.7 E.03943
G1 X119.607 Y122.269 E.06639
G1 X118.966 Y121.966 E.0394
G1 X118.441 Y121.687 E.03302
G1 X117.442 Y121.067 E.06534
G1 X116.821 Y120.616 E.04263
G1 X116.231 Y120.134 E.04238
G1 X115.721 Y119.67 E.03829
G1 X115.221 Y119.164 E.0395
G1 X114.444 Y118.257 E.06639
G1 X114.023 Y117.687 E.0394
G1 X113.691 Y117.192 E.03311
G1 X113.106 Y116.177 E.06511
G1 X112.797 Y115.538 E.03943
G1 X112.549 Y114.958 E.03502
G1 X112.173 Y113.883 E.06331
G1 X111.972 Y113.143 E.04259
G1 X111.815 Y112.397 E.04238
G1 X111.709 Y111.716 E.03829
G1 X111.636 Y111.009 E.0395
G1 X111.599 Y109.815 E.06638
G1 X111.628 Y109.107 E.0394
G1 X111.681 Y108.515 E.03301
G1 X111.862 Y107.356 E.06521
G1 X112.021 Y106.663 E.03948
G1 X112.209 Y106.001 E.03828
G1 X112.457 Y105.28 E.04237
G1 X112.748 Y104.569 E.04266
G1 X113.281 Y103.498 E.06653
G1 X113.643 Y102.886 E.0395
G1 X114.024 Y102.311 E.03829
G1 X114.478 Y101.7 E.04237
G1 X114.82 Y101.291 E.02957
M204 S1000
G1 X115.076 Y101.506 F10800
M204 S800
G1 F1200
G1 X115.223 Y101.33 E.01272
G1 X116.015 Y100.511 E.06333
G1 X116.444 Y100.123 E.03214
G1 X116.984 Y99.68 E.03883
G1 X117.912 Y99.022 E.0632
G1 X118.405 Y98.719 E.03214
G1 X119.017 Y98.382 E.03885
G1 X120.07 Y97.898 E.06439
G1 X120.726 Y97.652 E.03892
G1 X121.357 Y97.451 E.03683
G1 X122.086 Y97.262 E.04186
